img/slc_icon_stepper.svg

<svg xmlns="http://www.w3.org/2000/svg" viewBox="0 0 26.15 26.15" enable-background="new 0 0 26.15 26.15"><g fill-rule="evenodd" clip-rule="evenodd"><path d="M13.076 0c.717 0 1.299 2.012 1.299 4.495s-.582 4.495-1.299 4.495c-.718 0-1.3-2.012-1.3-4.495s.582-4.495 1.3-4.495z"/><path fill="#999" d="M0 13.076c0-.719 2.013-1.3 4.495-1.3 2.483 0 4.495.582 4.495 1.3 0 .717-2.012 1.299-4.495 1.299-2.482 0-4.495-.582-4.495-1.299z"/><path fill="#B3B3B3" d="M3.83 3.83c.507-.507 2.342.504 4.097 2.259 1.756 1.755 2.767 3.589 2.259 4.097-.508.508-2.342-.503-4.098-2.259s-2.766-3.59-2.258-4.097z"/><path fill="#1A1A1A" d="M22.322 3.83c-.508-.507-2.342.504-4.098 2.259s-2.768 3.589-2.26 4.097 2.342-.503 4.098-2.259 2.768-3.59 2.26-4.097z"/><path fill="#666" d="M13.076 17.162c.717 0 1.299 2.012 1.299 4.494s-.582 4.494-1.299 4.494c-.718 0-1.3-2.012-1.3-4.494s.582-4.494 1.3-4.494z"/><path fill="#333" d="M17.162 13.076c0-.719 2.012-1.3 4.494-1.3s4.494.582 4.494 1.3c0 .717-2.012 1.299-4.494 1.299s-4.494-.582-4.494-1.299z"/><path fill="#4D4D4D" d="M15.965 15.965c.508-.508 2.342.504 4.098 2.26 1.756 1.754 2.766 3.59 2.258 4.096-.506.508-2.342-.502-4.096-2.258-1.756-1.756-2.768-3.59-2.26-4.098z"/><path fill="#808080" d="M10.187 15.965c-.507-.508-2.342.504-4.098 2.26-1.755 1.754-2.766 3.59-2.258 4.096.507.508 2.342-.502 4.097-2.258s2.766-3.59 2.259-4.098z"/></g></svg>

<?xml version="1.0" encoding="utf-8"?>
<!-- width="26.15px" height="26.15px"  -->
<!DOCTYPE svg PUBLIC "-//W3C//DTD SVG 1.1//EN" "http://www.w3.org/Graphics/SVG/1.1/DTD/svg11.dtd">
<svg version="1.1" id="Layer_1" xmlns="http://www.w3.org/2000/svg" xmlns:xlink="http://www.w3.org/1999/xlink" x="0px" y="0px"
	  viewBox="0 0 26.15 26.15" enable-background="new 0 0 26.15 26.15" xml:space="preserve">
<g>
	<path fill-rule="evenodd" clip-rule="evenodd" d="M13.076,0c0.717,0,1.299,2.012,1.299,4.495s-0.582,4.495-1.299,4.495
		c-0.718,0-1.3-2.012-1.3-4.495S12.358,0,13.076,0L13.076,0z"/>
	<path fill-rule="evenodd" clip-rule="evenodd" fill="#999999" d="M0,13.076c0-0.719,2.013-1.3,4.495-1.3
		c2.483,0,4.495,0.582,4.495,1.3c0,0.717-2.012,1.299-4.495,1.299C2.013,14.375,0,13.793,0,13.076L0,13.076z"/>
	<path fill-rule="evenodd" clip-rule="evenodd" fill="#B3B3B3" d="M3.83,3.83c0.507-0.507,2.342,0.504,4.097,2.259
		c1.756,1.755,2.767,3.589,2.259,4.097c-0.508,0.508-2.342-0.503-4.098-2.259S3.322,4.337,3.83,3.83L3.83,3.83z"/>
	<path fill-rule="evenodd" clip-rule="evenodd" fill="#1A1A1A" d="M22.322,3.83c-0.508-0.507-2.342,0.504-4.098,2.259
		s-2.768,3.589-2.26,4.097s2.342-0.503,4.098-2.259S22.83,4.337,22.322,3.83L22.322,3.83z"/>
	<path fill-rule="evenodd" clip-rule="evenodd" fill="#666666" d="M13.076,17.162c0.717,0,1.299,2.012,1.299,4.494
		s-0.582,4.494-1.299,4.494c-0.718,0-1.3-2.012-1.3-4.494S12.358,17.162,13.076,17.162L13.076,17.162z"/>
	<path fill-rule="evenodd" clip-rule="evenodd" fill="#333333" d="M17.162,13.076c0-0.719,2.012-1.3,4.494-1.3
		s4.494,0.582,4.494,1.3c0,0.717-2.012,1.299-4.494,1.299S17.162,13.793,17.162,13.076L17.162,13.076z"/>
	<path fill-rule="evenodd" clip-rule="evenodd" fill="#4D4D4D" d="M15.965,15.965c0.508-0.508,2.342,0.504,4.098,2.26
		c1.756,1.754,2.766,3.59,2.258,4.096c-0.506,0.508-2.342-0.502-4.096-2.258C16.469,18.307,15.457,16.473,15.965,15.965
		L15.965,15.965z"/>
	<path fill-rule="evenodd" clip-rule="evenodd" fill="#808080" d="M10.187,15.965c-0.507-0.508-2.342,0.504-4.098,2.26
		c-1.755,1.754-2.766,3.59-2.258,4.096c0.507,0.508,2.342-0.502,4.097-2.258S10.694,16.473,10.187,15.965L10.187,15.965z"/>
</g>
</svg>
